frontend/public/svg/hand gestures/2-tap.svg

<svg width="112" height="157" viewBox="0 0 112 157" fill="none" xmlns="http://www.w3.org/2000/svg">
<g clip-path="url(#clip0)">
<path d="M6.17863 98.4963L6.63819 98.9045C11.5227 103.154 15.5876 108.263 18.632 113.977C22.8123 122.032 27.4986 130.503 32.96 139.876C34.3868 142.326 36.6755 144.33 38.5106 145.803C41.8763 148.505 45.9089 150.741 51.2009 152.842C56.0729 154.799 61.2749 155.804 66.5251 155.803C72.3836 155.733 78.1856 154.645 83.6713 152.587C87.7071 151.068 91.443 148.847 94.7057 146.028C100.542 141.171 104.623 134.561 107.181 125.82C110.674 113.912 112.154 101.506 111.559 89.1113C111.311 85.6111 110.532 82.1686 109.249 78.9026C107.373 73.8429 102.846 71.0804 97.4354 71.7039C95.7079 71.9868 94.0257 72.4941 92.4301 73.2135C91.7738 73.476 91.0978 73.7432 90.4191 73.9814C86.4279 67.6084 84.5712 66.6678 75.0096 66.1598C75.0096 65.9695 75.0129 65.7772 75.0149 65.5849C75.0214 64.9285 75.0287 64.2498 75.0031 63.5745C74.898 60.8852 74.7996 58.1958 74.709 55.5061C74.4734 48.7819 74.2292 41.8281 73.823 34.9969C73.4055 27.9577 71.5914 22.1937 68.2736 17.3769C65.5656 13.4441 61.1404 12.3282 57.2601 14.5979C55.2824 15.7401 53.6059 17.3376 52.3694 19.2579C51.3619 21.04 50.5287 22.915 49.8812 24.8571C49.6515 25.4793 49.4156 26.1173 49.1668 26.7494C49.0874 26.6181 49.0053 26.4868 48.9226 26.3556C48.4501 25.589 47.9141 24.7212 47.3254 23.9067C44.5687 20.0914 40.7482 19.3183 36.5772 21.7264C32.6647 23.9849 31.738 27.8743 31.3685 31.011C31.083 33.4342 31.0369 35.9178 30.9916 38.3199L30.9701 39.4429C30.9316 41.2937 30.8907 43.1446 30.8474 44.9955C30.701 51.446 30.5486 58.1163 30.5513 64.6778C30.5513 69.5347 30.703 74.305 30.8605 79.3568C30.9222 81.3462 30.9819 83.3572 31.0396 85.3905L30.8958 85.2671C30.4534 84.8865 30.0716 84.5583 29.6594 84.2557C22.9943 79.366 15.8649 77.6313 8.47193 79.093C6.8496 79.3706 5.32531 80.0584 4.04393 81.0915C2.76255 82.1246 1.76683 83.4681 1.1513 84.9948C0.547733 86.6185 0.363073 88.3677 0.614179 90.0814C0.865287 91.7951 1.54404 93.4182 2.588 94.8004C3.64819 96.1584 4.85194 97.3976 6.17863 98.4963ZM36.633 68.0658C36.5936 66.3981 36.5153 64.7041 36.4359 63.0659C36.3046 60.1845 36.1643 57.2053 36.2359 54.286C36.4328 46.2859 36.892 38.2471 37.3121 31.4389C37.5405 27.7378 38.1655 26.8064 41.419 25.4898C43.4917 26.8996 44.7538 29.126 45.3839 32.4785C46.2551 36.977 46.8574 41.5235 47.1876 46.0936C47.6365 52.7469 47.975 59.5203 48.3032 66.0706C48.4782 69.6036 48.6604 73.1367 48.8499 76.6691C48.9024 77.6228 48.9989 78.5968 49.5456 79.1028C50.3567 79.8911 51.4042 80.3919 52.5274 80.5277C52.8162 80.55 53.1065 80.512 53.3795 80.4148C53.6525 80.3177 53.902 80.1641 54.1118 79.9646C54.3652 79.6968 54.5615 79.3804 54.6887 79.0346C54.8158 78.6887 54.8712 78.3205 54.8515 77.9523C54.8449 77.0951 54.8654 76.2353 54.8864 75.3748C54.9636 73.6414 54.9315 71.9054 54.7905 70.1766C53.85 61.0535 54.3311 51.7736 54.7905 42.8021L54.9498 39.6733C55.1087 36.4724 55.2728 33.1618 55.7447 29.9595C56.1801 27.5724 56.8789 25.2408 57.8281 23.0075C58.2885 22.0476 58.9809 21.2178 59.8429 20.5929C60.5406 20.016 61.0645 19.781 61.4899 19.8591C61.9152 19.9372 62.3474 20.3533 62.8259 21.1717C64.6524 24.3568 65.8137 27.8793 66.239 31.5261C67.593 41.7118 67.9205 52.8007 67.2727 66.4224C67.1375 69.2571 66.896 72.1371 66.6623 74.9219C66.5442 76.3331 66.4254 77.7442 66.3151 79.2183C66.1924 80.8401 66.0526 82.6779 68.336 83.3401C70.1271 83.8652 72.8844 82.9385 73.6195 81.016C74.2837 79.093 74.7005 77.0938 74.8606 75.0657C75.0575 73.2463 75.5826 72.0846 76.4785 71.5149C77.356 70.957 78.6536 70.9675 80.3345 71.5451C83.0786 72.4876 84.7077 74.3339 85.1756 77.0327C85.4113 78.5869 85.553 80.1543 85.6003 81.7262C85.6219 82.1561 85.6436 82.5853 85.6659 83.0133C85.7499 84.452 86.107 86.1683 88.1357 86.675C90.0798 87.1607 91.1293 85.9182 91.9668 84.5012C92.1637 84.173 92.3501 83.8449 92.5404 83.5121C93.1567 82.3825 93.8491 81.2956 94.6125 80.2599C96.1378 78.2909 97.9631 77.3064 99.6006 77.5447C101.169 77.7757 102.489 79.0851 103.314 81.2326C104.717 84.6108 105.546 88.1997 105.765 91.8515C106.096 101.819 104.834 111.777 102.028 121.347C100.604 126.267 98.4468 130.944 95.6298 135.22C92.3245 140.162 87.1033 143.684 79.6657 145.988C66.7923 149.975 54.6861 147.808 42.656 139.359C41.4766 138.572 40.4471 137.581 39.616 136.433C37.5753 133.495 35.6863 130.456 33.9563 127.326C31.3107 122.415 28.7259 117.315 26.0553 111.738C22.0017 103.276 16.8719 96.6999 10.3689 91.6323C10.2024 91.5063 10.0454 91.3685 9.89907 91.2195C9.72711 91.0403 9.54905 90.8624 9.37381 90.6839C8.05719 89.3666 6.81402 88.1242 7.58391 86.1158C8.40958 83.9623 10.5515 83.753 12.6741 83.7234C12.7436 83.7234 12.8137 83.7234 12.8846 83.7234C19.4231 83.7234 28.9129 87.9332 30.0628 95.9969C30.3634 98.1117 31.5759 99.3213 33.3913 99.3213H33.4346C35.2297 99.3023 36.4227 98.1734 36.8861 96.0573C37.0777 95.1568 37.1639 94.2366 37.1429 93.3165C36.9637 83.2062 36.804 75.4201 36.6294 68.0658H36.633Z" fill="black"/>
<path d="M79.1406 32.5468C79.2325 32.8426 79.3848 33.1163 79.5876 33.3507C79.7904 33.5851 80.0391 33.7752 80.3181 33.9093C81.888 34.7028 83.6536 33.9507 84.9282 31.9475C85.2524 31.4605 85.5261 30.9414 85.7447 30.3985C88.7159 22.508 87.99 15.8279 83.5262 9.98188C74.9807 -1.21394 61.504 -0.811635 51.9405 4.55458C50.7669 5.30804 49.7228 6.24625 48.8486 7.3329C48.5598 7.65385 48.2731 7.97349 47.9798 8.27934C47.5199 8.78163 47.1024 9.32147 46.7325 9.89327C46.6727 9.98122 46.6183 10.0619 46.5684 10.1334C45.387 10.0934 44.2405 10.0193 43.1274 9.94775C40.7394 9.72387 38.3368 9.69992 35.9448 9.87621C32.8288 10.2184 29.8318 11.2659 27.1811 12.9394C24.5303 14.6128 22.2956 16.8682 20.6465 19.5342C18.9992 22.0378 17.9437 24.8837 17.56 27.856C17.1763 30.8283 17.4745 33.849 18.432 36.6889C18.9377 38.0872 19.6879 39.3844 20.6478 40.5199C20.8858 40.8468 21.1915 41.1181 21.5445 41.3153C21.8975 41.5124 22.2891 41.6307 22.6921 41.6619H22.7402C23.1789 41.6319 23.606 41.5093 23.9939 41.3023C24.3818 41.0952 24.7215 40.8086 24.9906 40.4609L25.1265 40.3112L25.0608 40.1209C24.9236 39.7343 24.7755 39.3496 24.6265 38.965C24.2855 38.1398 24.0003 37.2926 23.7731 36.429C23.6773 36.0227 23.5683 35.6119 23.4587 35.199C23.003 33.8327 22.7918 32.3968 22.8341 30.9571C23.0718 28.2988 23.9211 25.7315 25.3159 23.4561C26.7107 21.1807 28.6132 19.2589 30.8742 17.8409C32.9188 16.5621 35.2315 15.774 37.6316 15.5384C40.0315 15.3028 42.4535 15.6261 44.7077 16.4829C48.6956 18.0036 49.6452 17.6427 51.479 13.9101C52.2164 12.3203 53.3231 10.9298 54.7069 9.85442C56.0906 8.77901 57.7113 8.05002 59.4339 7.72802C60.955 7.38665 62.4924 7.12241 64.0402 6.93645C70.1324 6.22564 75.2229 8.55494 79.1623 13.8568C82.5975 18.482 82.8338 23.5765 79.8639 28.9999C79.0999 30.3893 78.8505 31.6161 79.1406 32.5468Z" fill="black"/>
</g>
<defs>
<clipPath id="clip0">
<rect width="111.577" height="155.552" fill="white" transform="translate(0.15564 0.667236)"/>
</clipPath>
</defs>
</svg>

<svg xmlns="http://www.w3.org/2000/svg" width="112" height="157" fill="none" viewBox="0 0 112 157"><g fill="#000" clip-path="url(#a)"><path d="m6.179 98.496.46.409a53 53 0 0 1 11.993 15.072c4.18 8.055 8.867 16.526 14.328 25.899 1.427 2.45 3.715 4.454 5.55 5.927 3.366 2.702 7.399 4.938 12.69 7.039a41.1 41.1 0 0 0 15.325 2.961 50.5 50.5 0 0 0 17.146-3.216 36.6 36.6 0 0 0 11.035-6.559c5.836-4.857 9.917-11.467 12.475-20.208a111.4 111.4 0 0 0 4.378-36.709 34.6 34.6 0 0 0-2.31-10.208c-1.876-5.06-6.403-7.823-11.814-7.2-1.727.284-3.41.791-5.005 1.51a50 50 0 0 1-2.01.768c-3.992-6.373-5.849-7.313-15.41-7.821q.001-.286.005-.575c.006-.656.014-1.335-.012-2.01q-.158-4.035-.294-8.069c-.236-6.724-.48-13.678-.886-20.51-.417-7.038-2.232-12.802-5.55-17.62-2.707-3.932-7.133-5.048-11.013-2.778a14.36 14.36 0 0 0-4.89 4.66 32 32 0 0 0-2.489 5.6c-.23.621-.465 1.26-.714 1.891a25 25 0 0 0-.244-.393c-.473-.767-1.009-1.635-1.598-2.45-2.756-3.815-6.577-4.588-10.748-2.18-3.912 2.259-4.839 6.148-5.208 9.285-.286 2.423-.332 4.907-.377 7.309l-.022 1.123q-.058 2.776-.123 5.553c-.146 6.45-.298 13.12-.296 19.682 0 4.857.152 9.627.31 14.679q.091 2.984.179 6.034l-.144-.124c-.443-.38-.824-.709-1.237-1.011-6.665-4.89-13.794-6.625-21.187-5.163a9.65 9.65 0 0 0-7.32 5.902A10.31 10.31 0 0 0 2.587 94.8a24 24 0 0 0 3.59 3.696m30.454-30.43c-.04-1.668-.118-3.362-.197-5-.131-2.882-.272-5.86-.2-8.78.197-8 .656-16.039 1.076-22.847.229-3.701.854-4.633 4.107-5.95 2.073 1.41 3.335 3.637 3.965 6.99a115 115 0 0 1 1.804 13.615c.448 6.653.787 13.426 1.115 19.977q.262 5.3.547 10.598c.052.954.149 1.928.696 2.434a5.17 5.17 0 0 0 2.981 1.425 2.07 2.07 0 0 0 1.585-.563 2.72 2.72 0 0 0 .74-2.013c-.007-.857.013-1.717.034-2.577.078-1.734.045-3.47-.096-5.198-.94-9.124-.459-18.403 0-27.375l.16-3.129c.159-3.2.323-6.511.795-9.714a32.8 32.8 0 0 1 2.083-6.951 6.4 6.4 0 0 1 2.015-2.415c.698-.577 1.221-.812 1.647-.734s.857.494 1.336 1.313a27.1 27.1 0 0 1 3.413 10.354c1.354 10.186 1.681 21.275 1.034 34.896-.135 2.835-.377 5.715-.61 8.5a441 441 0 0 0-.348 4.296c-.123 1.622-.262 3.46 2.021 4.122 1.791.525 4.548-.401 5.284-2.324a24 24 0 0 0 1.24-5.95c.198-1.82.723-2.981 1.618-3.551.878-.558 2.176-.547 3.857.03 2.744.943 4.373 2.789 4.84 5.488q.354 2.333.425 4.693l.066 1.287c.084 1.439.441 3.155 2.47 3.662 1.944.486 2.993-.757 3.83-2.174.198-.328.384-.656.574-.989a28 28 0 0 1 2.072-3.252c1.526-1.97 3.351-2.954 4.989-2.715 1.568.23 2.888 1.54 3.713 3.688a32.8 32.8 0 0 1 2.451 10.618 93.8 93.8 0 0 1-3.737 29.496 51 51 0 0 1-6.398 13.873c-3.305 4.942-8.527 8.464-15.964 10.768-12.874 3.987-24.98 1.82-37.01-6.629a11.9 11.9 0 0 1-3.04-2.926 105 105 0 0 1-5.66-9.107 365 365 0 0 1-7.9-15.588C22 103.276 16.87 96.7 10.367 91.632a4 4 0 0 1-.47-.413c-.172-.179-.35-.357-.525-.535-1.317-1.317-2.56-2.56-1.79-4.568.826-2.154 2.968-2.363 5.09-2.393h.21c6.54 0 16.029 4.21 17.179 12.274.3 2.115 1.513 3.324 3.328 3.324h.044c1.795-.019 2.988-1.148 3.451-3.264.192-.9.278-1.82.257-2.74a4134 4134 0 0 0-.514-25.251z"/><path d="M79.14 32.547a2.25 2.25 0 0 0 1.178 1.362c1.57.794 3.336.042 4.61-1.961a8.6 8.6 0 0 0 .817-1.55c2.97-7.89 2.245-14.57-2.219-20.416C74.981-1.214 61.504-.812 51.941 4.555a13 13 0 0 0-3.092 2.778c-.29.32-.576.64-.87.946q-.691.755-1.246 1.614l-.165.24c-1.181-.04-2.328-.114-3.44-.185a43 43 0 0 0-7.183-.072 20.64 20.64 0 0 0-15.298 9.658 19.74 19.74 0 0 0-2.215 17.155 12.5 12.5 0 0 0 2.216 3.83 2.8 2.8 0 0 0 2.044 1.143h.048a3.1 3.1 0 0 0 2.25-1.201l.137-.15-.066-.19a43 43 0 0 0-.434-1.156 20 20 0 0 1-.854-2.536 46 46 0 0 0-.314-1.23 12.3 12.3 0 0 1-.625-4.242 17.3 17.3 0 0 1 8.04-13.116 15.62 15.62 0 0 1 13.834-1.358c3.988 1.52 4.937 1.16 6.771-2.573a11 11 0 0 1 7.955-6.182 46 46 0 0 1 4.606-.792c6.092-.71 11.183 1.619 15.122 6.92 3.435 4.626 3.672 9.72.702 15.144-.764 1.39-1.014 2.616-.723 3.547"/></g><defs><clipPath id="a"><path fill="#fff" d="M.156.667h111.577V156.22H.156z"/></clipPath></defs></svg>
